public/assets/Heart.svg

<svg width="25" height="24" viewBox="0 0 25 24" fill="none" xmlns="http://www.w3.org/2000/svg">
<g id="Heart">
<path id="Vector" d="M22.1328 6.6469C21.8187 5.91949 21.3657 5.26032 20.7992 4.70628C20.2323 4.15059 19.564 3.70899 18.8305 3.4055C18.0699 3.08954 17.2541 2.92782 16.4305 2.92972C15.275 2.92972 14.1477 3.24612 13.168 3.84378C12.9336 3.98675 12.7109 4.14378 12.5 4.31487C12.2891 4.14378 12.0664 3.98675 11.832 3.84378C10.8523 3.24612 9.725 2.92972 8.56953 2.92972C7.7375 2.92972 6.93125 3.08909 6.16953 3.4055C5.43359 3.71019 4.77031 4.14847 4.20078 4.70628C3.63359 5.25969 3.1805 5.91902 2.86719 6.6469C2.54141 7.40394 2.375 8.20784 2.375 9.03519C2.375 9.81565 2.53438 10.6289 2.85078 11.4563C3.11563 12.1477 3.49531 12.8649 3.98047 13.5891C4.74922 14.7352 5.80625 15.9305 7.11875 17.1422C9.29375 19.1508 11.4477 20.5383 11.5391 20.5946L12.0945 20.9508C12.3406 21.1078 12.657 21.1078 12.9031 20.9508L13.4586 20.5946C13.55 20.536 15.7016 19.1508 17.8789 17.1422C19.1914 15.9305 20.2484 14.7352 21.0172 13.5891C21.5023 12.8649 21.8844 12.1477 22.1469 11.4563C22.4633 10.6289 22.6227 9.81565 22.6227 9.03519C22.625 8.20784 22.4586 7.40394 22.1328 6.6469ZM12.5 19.0969C12.5 19.0969 4.15625 13.7508 4.15625 9.03519C4.15625 6.6469 6.13203 4.71097 8.56953 4.71097C10.2828 4.71097 11.7688 5.66722 12.5 7.06409C13.2312 5.66722 14.7172 4.71097 16.4305 4.71097C18.868 4.71097 20.8438 6.6469 20.8438 9.03519C20.8438 13.7508 12.5 19.0969 12.5 19.0969Z" fill="#696C8D"/>
</g>
</svg>

<svg width="25" height="24" fill="none" xmlns="http://www.w3.org/2000/svg"><path d="M22.133 6.647a6.093 6.093 0 0 0-1.334-1.94A6.219 6.219 0 0 0 16.43 2.93a6.26 6.26 0 0 0-3.93 1.385A6.26 6.26 0 0 0 8.57 2.93 6.219 6.219 0 0 0 4.2 4.706a6.057 6.057 0 0 0-1.825 4.33c0 .78.16 1.593.476 2.42.265.692.644 1.409 1.13 2.133.768 1.146 1.825 2.341 3.138 3.553a35.089 35.089 0 0 0 4.42 3.453l.556.356a.753.753 0 0 0 .808 0l.556-.356a35.535 35.535 0 0 0 4.42-3.453c1.312-1.211 2.37-2.407 3.138-3.553.485-.724.867-1.441 1.13-2.133.316-.827.476-1.64.476-2.42a5.968 5.968 0 0 0-.49-2.39ZM12.5 19.097S4.156 13.75 4.156 9.035c0-2.388 1.976-4.324 4.414-4.324 1.713 0 3.199.956 3.93 2.353a4.426 4.426 0 0 1 3.93-2.353c2.438 0 4.414 1.936 4.414 4.324 0 4.716-8.344 10.062-8.344 10.062Z" fill="#696C8D"/></svg>
